X:0524
T:Rule Britannia.
M:C
L:1/8
Q:1/4=90
I: : || :| ||
Z:Jack Campin * www.campin.me.uk * 2009
K:D
A|      d2       d2      (d/e/f/g/     a)`.d    | e2 ({ef}g2)      f2  z   \
A|      d/e/d/e/ f/g/f/g/ aefe                  |(de/f/)  ed    {d}c2  z
A|      e2       dc       a^g/f/       e/d/c/B/ | A2      B2       A2  z2||
    {Bc}d2       dA       BG           z   f    | gfed          {d}c2  z   \
e|     Ta2      Tg2       f/d/g/e/     a/f/e/d/ | A2    (Te2{de})  d4    ||
P:Chos.
        f3        f       g/f/g        z   f    | gfed        ({d}Tc2) z2 |\
"_For."Ta2      Tg2      (f/d/)(g/e/) (a/f/e/d/)| A2    (Te2{de})  d4    |]

